assets/02_eyes/Eye 39.svg

<svg width="400" height="180" viewBox="0 0 400 180" fill="none" xmlns="http://www.w3.org/2000/svg">
<g clip-path="url(#clip0_70_1553)">
<path d="M111 7.62939e-06C111 49.7071 151.517 90 201.5 90C251.483 90 292 49.7071 292 7.62939e-06H111Z" fill="white"/>
<path d="M201.5 7.62939e-06C226.491 7.62939e-06 246.75 20.1472 246.75 45C246.75 69.8528 226.491 90 201.5 90C176.509 90 156.25 69.8528 156.25 45C156.25 20.1472 176.509 7.62939e-06 201.5 7.62939e-06Z" fill="#FFCF4B"/>
<path d="M227.321 19.0112C227.321 19.0112 200.731 43.9484 176.244 19.576C200.752 43.9484 175.676 70.371 175.676 70.371C198.143 48.0279 225.091 68.1325 225.091 68.1325C225.091 68.1325 204.875 41.3333 227.342 18.9902L227.321 19.0112Z" fill="white"/>
</g>
<g clip-path="url(#clip1_70_1553)">
<path d="M290 179.457V180H110V179.436C110.314 130.103 150.477 90.2141 200 90.2141C249.523 90.2141 289.728 130.124 290 179.457Z" fill="white"/>
<path d="M263.49 180H136.531C136.531 145.022 164.947 116.646 200 116.646C235.054 116.646 263.49 145.022 263.49 180Z" fill="#F4A6C8"/>
<path d="M228.311 180H171.689C171.689 164.412 184.358 151.771 199.979 151.771C215.601 151.771 228.29 164.412 228.29 180H228.311Z" fill="white"/>
</g>
<defs>
<clipPath id="clip0_70_1553">
<rect width="181" height="90" fill="white" transform="matrix(1 0 0 -1 111 90)"/>
</clipPath>
<clipPath id="clip1_70_1553">
<rect width="180" height="90" fill="white" transform="translate(110 90)"/>
</clipPath>
</defs>
</svg>

<svg xmlns="http://www.w3.org/2000/svg" width="400" height="180" fill="none" viewBox="0 0 400 180"><g clip-path="url(#Eye_39_svg_clip0_70_1553)"><path fill="#fff" d="M111 0c0 49.707 40.517 90 90.5 90S292 49.707 292 0z"/><path fill="#ffcf4b" d="M201.5 0c24.991 0 45.25 20.147 45.25 45s-20.259 45-45.25 45-45.25-20.147-45.25-45S176.509 0 201.5 0"/><path fill="#fff" d="M227.321 19.011s-26.59 24.937-51.077.565c24.508 24.372-.568 50.795-.568 50.795 22.467-22.343 49.415-2.239 49.415-2.239s-20.216-26.799 2.251-49.142z"/></g><g clip-path="url(#Eye_39_svg_clip1_70_1553)"><path fill="#fff" d="M290 179.457V180H110v-.564c.314-49.333 40.477-89.222 90-89.222s89.728 39.91 90 89.243"/><path fill="#f4a6c8" d="M263.49 180H136.531c0-34.978 28.416-63.354 63.469-63.354 35.054 0 63.49 28.376 63.49 63.354"/><path fill="#fff" d="M228.311 180h-56.622c0-15.588 12.669-28.229 28.29-28.229 15.622 0 28.311 12.641 28.311 28.229z"/></g><defs><clipPath id="Eye_39_svg_clip0_70_1553"><rect width="181" height="90" fill="#fff" transform="matrix(1 0 0 -1 111 90)"/></clipPath><clipPath id="Eye_39_svg_clip1_70_1553"><rect width="180" height="90" fill="#fff" transform="translate(110 90)"/></clipPath></defs></svg>
